!! J.S. Bach "Fugue No. 1 (Ricercata)" in three voices from
!! 'Das musikalische Opfer' BWV 1079.
!! Encoded from 'Klavierwerke von Joh. Seb. Bach', Czerny & Roitzsch (eds.)
!! Leipzig: C.F. Peters, pp.4-9
!! Performance duration: 6:14,  tempo: 118.7 quarter-notes per minute.
!! (Performance information from Johann Sebastian Bach, 'The Musical Offering'
!! Academy of St. Martin-in-the-Fields/Neville Marriner; Philips No. 412 800-2.)
**kern	**kern	**kern
*M2/2	*M2/2	*M2/2
*MM118.7	*MM118.7	*MM118.7
=1	=1	=1
1r	1r	2cc
.	.	2ee-
=2	=2	=2
1r	1r	2gg
.	.	2aa-
=3	=3	=3
1r	1r	2bn
.	.	4r
.	.	4gg
=4	=4	=4
1r	1r	2ff#
.	.	2ffn
=5	=5	=5
1r	1r	2een
.	.	[2ee-
=6	=6	=6
1r	1r	4ee-]
.	.	4dd
.	.	4dd-
.	.	4cc
=7	=7	=7
1r	1r	4bn
.	.	8an
.	.	8g
.	.	4cc
.	.	4ff
=8	=8	=8
1r	1r	2ee-
.	.	2ddT
=9	=9	=9
1r	1r	4cc
.	.	4ccc
.	.	4ff#
.	.	4aan
=10	=10	=10
1r	2g	4b-
.	.	4ddd
.	2b-	4gg
.	.	4bb-
=11	=11	=11
1r	2cc	4ee-
.	.	4gg
.	2ee-	4cc
.	.	[4ccc
=12	=12	=12
1r	2f#	4ccc]
.	.	8bb-
.	.	8aan
.	4r	8bb-
.	.	8aa
.	4dd	8gg
.	.	8ffn
=13	=13	=13
1r	2cc#	8een
.	.	8dd
.	.	2ee
.	2ccn	.
.	.	4ff#
=14	=14	=14
1r	2bn	8gg
.	.	8dd
.	.	8gg
.	.	8aan
.	[2b-	8gg
.	.	8ffn
.	.	8ee-
.	.	8dd
=15	=15	=15
1r	4b-]	[2cc
.	4an	.
.	4a-	8cc]
.	.	8dd
.	4g	8ee-
.	.	8cc
=16	=16	=16
1r	4f#	4dd
.	8en	4ccc
.	8d	.
.	4g	4bb-
.	4cc	4aan
=17	=17	=17
1r	2b-	4ddd
.	.	2gg
.	2anT	.
.	.	4ff#T
=18	=18	=18
1r	2g	4gg
.	.	4bb-
.	4r	4een
.	[4b-	4gg
=19	=19	=19
1r	4b-]	4cc
.	8a-	8dd
.	8g	8een
.	8a-	[2ff
.	8g	.
.	8f	.
.	8e-	.
=20	=20	=20
1r	8d	4ff]
.	8e-	.
.	8f	4aa-
.	8g	.
.	8a-	4dd
.	8g	.
.	[4a-	4ff
=21	=21	=21
1r	4a-]	4b-
.	8g	8cc
.	8f	8dd
.	8g	[2ee-
.	8f	.
.	8e-	.
.	8d	.
=22	=22	=22
1r	4c	4ee-]
.	8d	8dd
.	8e-	8cc
.	8f	8dd
.	8e-	8cc
.	[4f	8bn
.	.	8an
=23	=23	=23
2C	2f_	4g
.	.	8an
.	.	8bn
2E-	4.f]	8cc
.	.	8b
.	.	[4cc
.	8e-	.
=24	=24	=24
2G	4d	4cc]
.	4g	2b-
2A-	4c	.
.	[4f	4a-
=25	=25	=25
2BBn	4f]	2g
.	8e-	.
.	8d	.
4r	8e-	2r
.	8d	.
4G	8c	.
.	8B-	.
=26	=26	=26
2F#	8An	8r
.	8G	8ee-
.	2A	8dd
.	.	8cc
2Fn	.	8dd
.	.	8ff
.	4Bn	8ee-
.	.	8dd
=27	=27	=27
2En	8c	[2gg
.	8G	.
.	8c	.
.	8d	.
[2E-	8c	8gg]
.	8B-	8dd-
.	8A-	8cc
.	8G	8b-
=28	=28	=28
4E-]	[2F	8an
.	.	8g
4D	.	8a
.	.	8cc
4D-	8F]	[2ff
.	8G	.
4C	8A-	.
.	8F	.
=29	=29	=29
4BBn	4G	4ff]
8AAn	4f	4bn
8GG	.	.
4C	4e-	8r
.	.	4cc
4F	4d	.
.	.	8b
=30	=30	=30
2E-	4g	8cc
.	.	8b-
.	2c	8a-
.	.	8g
2DT	.	8f
.	.	8a-
.	4Bn	8g
.	.	8f
=31	=31	=31
8C	4c	4e-
8D	.	.
8E-	2cc	4ee-
8F	.	.
8G	.	4dd
8E-	.	.
8F	[4b-	4dd-
8G	.	.
=32	=32	=32
4A-	8b-]	4cc
.	8a-	.
4B-	8g	2b-
.	8f	.
8c	8e-	.
8B-	8g-	.
4c	8f	4an
.	8e-	.
=33	=33	=33
8B-	4f	4dd
8C	.	.
8D-	2b-	4dd-
8E-	.	.
8F	.	4cc
8Dn	.	.
8E-	[4a-	4cc-
8F	.	.
=34	=34	=34
4G	8a-]	4b-
.	8g	.
4A-	8f	2a-
.	8e-	.
8B-	8d-	.
8A-	8f-	.
4B-	8e-	4g
.	8d-	.
=35	=35	=35
8A-	4e-	4cc
8BB-	.	.
8C-	2a-	4cc-
8D-	.	.
8E-	.	2b-
8Cn	.	.
8Dn	[4g	.
8En	.	.
=36	=36	=36
8F	4g]	4an
8E-	.	.
8D-	2f	4a-
8C	.	.
8BBn	.	[2g
8Dn	.	.
8C	8e-	.
8BB-	8d	.
=37	=37	=37
2AAn	4c	8g]
.	.	8f
.	4C	8e-
.	.	8d
2AA-	4F	8c
.	.	8e-
.	4F#	8d
.	.	8c
=38	=38	=38
2GG	12G	4Bn
.	12D	.
.	12G	.
.	12Bn	4r
.	12G	.
.	12B	.
2BBn	12d	2r
.	12A-	.
.	12G	.
.	12F	.
.	12E-	.
.	12D	.
=39	=39	=39
2C	4E-	12r
.	.	12g
.	.	12cc
.	4r	12ee-
.	.	12cc
.	.	12ee-
2En	2r	12gg
.	.	12dd-
.	.	12cc
.	.	12b-
.	.	12a-
.	.	12g
=40	=40	=40
2FF	12r	4a-
.	12C	.
.	12F	.
.	12A-	4r
.	12F	.
.	12A-	.
2AAn	12c	2r
.	12G-	.
.	12F	.
.	12E-	.
.	12D-	.
.	12C	.
=41	=41	=41
2BB-	4D-	12r
.	.	12f
.	.	12b-
.	4r	12dd-
.	.	12b-
.	.	12dd-
2Dn	2r	12ff
.	.	12cc-
.	.	12b-
.	.	12a-
.	.	12g-
.	.	12f
=42	=42	=42
4EE-	2r	8g-
.	.	4ee-
4FF	.	.
.	.	8ddn
4GGn	4r	8ee-
.	.	8b-
4AAn	8r	[4ccn
.	8e-	.
=43	=43	=43
4BB-	8d	8cc]
.	8r	4b-
4C	4r	.
.	.	8an
4D-	4r	8b-
.	.	8f
4EEn	8r	4g
.	8d-	.
=44	=44	=44
4FF	8c	8a-
.	8r	4ff
4GG	4r	.
.	.	8een
4AAn	4r	8ff
.	.	8cc
4BBn	8r	[4ddn
.	8f	.
=45	=45	=45
4C	8en	8dd]
.	8r	4cc
4Dn	4r	.
.	.	8bn
4E-	4r	8cc
.	.	8g
4FF#	8r	4an
.	8e-	.
=46	=46	=46
2GG	8d	12b-
.	.	12g
.	8r	.
.	.	12b-
.	4r	12dd
.	.	12b-
.	.	12dd
2BB-	8r	[2gg
.	8dd	.
.	8cc	.
.	8b-	.
=47	=47	=47
2D	8an	12gg]
.	.	12ff#
.	8r	.
.	.	12een
.	4r	12ff#
.	.	12aan
.	.	12ddd
2E-	8r	[2ccc
.	8bb-	.
.	8aan	.
.	8gg	.
=48	=48	=48
2FF#	8aan	2ccc_
.	8dd	.
.	8ee-	.
.	8cc	.
4r	4dd	8ccc]
.	.	8aan
4D	16r	[4bb-
.	16aa	.
.	16gg	.
.	16ff#	.
=49	=49	=49
2C#	[2gg	8bb-]
.	.	8aan
.	.	8bb-
.	.	8gg
2Cn	8gg]	[2aa
.	8een	.
.	8ff#	.
.	8aan	.
=50	=50	=50
2BBn	[2dd	8aa]
.	.	8gg
.	.	8aa-
.	.	8ff#
[2BB-	8dd]	4.gg
.	8cc#	.
.	4dd	.
.	.	8ffn
=51	=51	=51
4BB-]	8r	[2een
.	8g	.
4AAn	8cc	.
.	8bn	.
4AA-	[2cc	8ee]
.	.	8dd
4GG	.	8ee-
.	.	8cc
=52	=52	=52
4FF#	8cc]	[1dd
.	8an	.
8EEn	8b-	.
8DD	8cc	.
4GG	8b-	.
.	8a	.
4C	8g	.
.	8f#	.
=53	=53	=53
2BB-	4g	8dd]
.	.	8een
.	4D	8ff#
.	.	8gg
2AAn	4r	8ff#
.	.	8ee
.	4F#	8dd
.	.	8cc
=54	=54	=54
4GG	4G	8b-
.	.	8g
4En	4r	8an
.	.	8b-
4F#	2r	8a
.	.	8g
4AAn	.	8f#
.	.	8en
=55	=55	=55
4BB-	8r	4d
.	8B-	.
4G	8c	4r
.	8d	.
4An	8c	2r
.	8B-	.
4C	8An	.
.	8G	.
=56	=56	=56
4D	4Fn	8r
.	.	8dd
4B-	4r	8ee-
.	.	8ffn
4c	4r	8ee-
.	.	8dd
[4E-	4G	8cc
.	.	8b-
=57	=57	=57
8E-]	4F	8an
8D	.	8bn
8E-	4r	8cc
8F	.	8dd
8E-	4r	4g
8D	.	.
8C	4dd	[4ff
8BBn	.	.
=58	=58	=58
8C	4g	8ff]
8F	.	8dd
8G	4r	8ee-
8A-	.	8ff
8G	2r	4bn
8F	.	.
8E-	.	[4aa-
8D	.	.
=59	=59	=59
4E-	2c	8aa-]
.	.	8ff
4C	.	8gg
.	.	8aa-
4c	2e-	8gg
.	.	8ff
4G	.	8ee-
.	.	8dd
=60	=60	=60
4e-	2g	8cc
.	.	8ee-
4c	.	8ff
.	.	8gg
4r	2a-	8ff
.	.	8ee-
4F	.	8dd
.	.	8cc
=61	=61	=61
8F	2Bn	4gg
8D	.	.
8E-	.	4g
8F	.	.
8E-	4r	8cc
8D	.	8dd
8C	4g	[4ee-
8BB-	.	.
=62	=62	=62
8AAn	2f#	4ee-]
8C	.	.
8D	.	4an
8E-	.	.
8D	2fn	8bn
8C	.	8cc
8BBn	.	[4dd
8AAn	.	.
=63	=63	=63
8GG	2en	4dd]
8BBn	.	.
8C	.	4g
8D	.	.
8C	[2e-	8an
8BB-	.	8b-
8AAn	.	[4cc
8GG	.	.
=64	=64	=64
4FF#	4e-]	8cc]
.	.	8an
4r	4d	8b-
.	.	8cc
4r	4d-	8b-
.	.	8an
4E-	4c	8g
.	.	8f#
=65	=65	=65
8FFn	4Bn	[1g
8D	.	.
8E-	8An	.
8F	8G	.
8E-	4c	.
8D	.	.
8C	4f	.
8BBn	.	.
=66	=66	=66
8C	2e-	4g]
8D	.	.
8E-	.	2cc
8F	.	.
8G	2d	.
8A-	.	.
8G	.	[4b-
8F	.	.
=67	=67	=67
8En	[2c	4b-]
8C	.	.
8D	.	8a-
8E-	.	8g
4F	8c]	[2a-
.	8c	.
4FF	8d	.
.	8e-	.
=68	=68	=68
4BB-	8d	4.a-]
.	8c	.
4D	[4B-	.
.	.	8f#
4E-	8B-]	[2g
.	8B-	.
4EE-	8c	.
.	8d-	.
=69	=69	=69
4AA-	8c	4.g]
.	8B-	.
4C	[4A-	.
.	.	8en
[2D-	8A-]	8f
.	8F	8a-
.	8G	8b-
.	8A-	8cc
=70	=70	=70
4D-]	8G	8b-
.	8F	8a-
4Dn	[4B-	8g
.	.	8f
[2E-	8B-]	8g
.	8G	8b-
.	8A-	8cc
.	8B-	8dd-
=71	=71	=71
4E-]	8A-	8cc
.	8G	8b-
4En	[4c	8a-
.	.	8g
[2F	8c]	8a-
.	8A-	8cc
.	8B-	8ddn
.	8G	8een
=72	=72	=72
4F]	8A-	2ff
.	8c	.
4r	8d	.
.	8en	.
8r	[2f	2aa-
8d-	.	.
8c	.	.
8B-	.	.
=73	=73	=73
2A-	8f]	2ccc
.	8e-	.
.	8d-	.
.	8c	.
8A-	[2B-	2ddd-
8A-	.	.
8G	.	.
8F	.	.
=74	=74	=74
[2G	8B-]	2een
.	8d-	.
.	8c	.
.	8B-	.
8G]	[2A-	4r
8G	.	.
8F	.	4ccc
8E-	.	.
=75	=75	=75
2Dn	8A-]	2bbn
.	8A-	.
.	8G	.
.	8F	.
8r	2G	2bb-
8En	.	.
8D	.	.
8C	.	.
=76	=76	=76
[2F	8F	2aan
.	8c	.
.	8d	.
.	8en	.
8F]	[2f	[2aa-
8F	.	.
8G	.	.
8A-	.	.
=77	=77	=77
[1B-	8f]	4aa-]
.	8f	.
.	8g	4gg
.	8a-	.
.	8b-	4gg-
.	8cc	.
.	8dd-	4ff
.	8b-	.
=78	=78	=78
8B-]	[1cc	4een
8G	.	.
8A-	.	8ddn
8B-	.	8cc
8A-	.	4ff
8G	.	.
8F	.	4bb-
8En	.	.
=79	=79	=79
8F	4cc]	2aa-
8En	.	.
8F	4bn	.
8G	.	.
8F	8cc	2gg
8E-	8dd	.
8D	[4ee-	.
8C	.	.
=80	=80	=80
8D	8ee-]	4ff#
8An	8cc	.
8B-	4f#	8ee-
8c	.	8dd
8B-	4r	4gg
8A-	.	.
8G	4ee-	4ccc
8F#	.	.
=81	=81	=81
8G	4dd	4bbn
8An	.	.
8B-	2gg	4bb-
8c	.	.
8d	.	4aan
8e-	.	.
8d	[4ffn	4aa-
8c	.	.
=82	=82	=82
8Bn	4ff]	[2gg
8G	.	.
8An	8ee-	.
8B-	8dd	.
4c	[2ee-	8gg]
.	.	8gg
4C	.	8aan
.	.	8bb-
=83	=83	=83
4F	4.ee-]	8aan
.	.	8gg
4An	.	[4ff
.	8cc#	.
4B-	[2dd	8ff]
.	.	8ff
4BB-	.	8gg
.	.	8aa-
=84	=84	=84
4E-	4.dd]	8gg
.	.	8ff
4G	.	[4ee-
.	8Bn	.
[2A-	8c	8ee-]
.	8e-	8cc
.	8f	8dd
.	8g	8ee-
=85	=85	=85
4A-]	8f	8dd
.	8e-	8cc
4An	8d	[4ff
.	8c	.
[2B-	8d	8ff]
.	8f	8dd
.	8g	8ee-
.	8a-	8ff
=86	=86	=86
4B-]	8g	8ee-
.	8f	8dd
4Bn	8e	[4gg
.	8d	.
4c	8e-	8gg]
.	8g	8ee-
4r	8an	8ff
.	8bn	8dd
=87	=87	=87
2C	12cc	4ee-
.	12g	.
.	12cc	.
.	12ee-	4r
.	12cc	.
.	12ee-	.
2En	12gg	2r
.	12dd-	.
.	12cc	.
.	12b-	.
.	12a-	.
.	12g	.
=88	=88	=88
2F	4a-	12r
.	.	12cc
.	.	12ff
.	4r	12aa-
.	.	12ff
.	.	12aa-
2An	2r	12ccc
.	.	12gg-
.	.	12ff
.	.	12ee-
.	.	12dd-
.	.	12cc
=89	=89	=89
2BB-	12r	4dd-
.	12f	.
.	12b-	.
.	12dd-	4r
.	12b-	.
.	12dd-	.
2Dn	12ff	2r
.	12cc-	.
.	12b-	.
.	12a-	.
.	12g-	.
.	12f	.
=90	=90	=90
2E-	4g-	12r
.	.	12b-
.	.	12ee-
.	4r	12gg-
.	.	12ee-
.	.	12gg-
2Gn	2r	12bb-
.	.	12ff-
.	.	12ee-
.	.	12dd-
.	.	12cc-
.	.	12b-
=91	=91	=91
4AA-	8r	4cc-
.	4a-	.
4BB-	.	4r
.	8g	.
4Cn	8a-	4r
.	8e-	.
4Dn	[4f	8r
.	.	8a-
=92	=92	=92
4E-	8f]	4g
.	4e-	.
4F	.	4r
.	8d	.
4G-	8e-	4r
.	8B-	.
4AAn	4c	8r
.	.	8g-
=93	=93	=93
4BB-	8d-	4f
.	4b-	.
4C	.	4r
.	8an	.
4Dn	8b-	4r
.	8f	.
4En	[4gn	8r
.	.	8b-
=94	=94	=94
4F	8g]	4an
.	4f	.
4G	.	4r
.	8en	.
4A-	8f	4r
.	8c	.
4BBn	4d	8r
.	.	8a-
=95	=95	=95
2C	12e-	4g
.	12c	.
.	12e-	.
.	12g	4r
.	12e-	.
.	12g	.
2E-	[2cc	8r
.	.	8gg
.	.	8ff
.	.	8ee-
=96	=96	=96
2G	12cc]	4dd
.	12bn	.
.	12an	.
.	12b	4r
.	12dd	.
.	12gg	.
2A-	[2ff	8r
.	.	8ee-
.	.	8dd
.	.	8cc
=97	=97	=97
2BBn	2ff_	8dd
.	.	8g
.	.	8a-
.	.	8f
4r	8ff]	4g
.	8dd	.
4G	[4ee-	8r
.	.	8gg
=98	=98	=98
2F#	8ee-]	8aan
.	8dd	8bbn
.	8ee-	[4ccc
.	8cc	.
2Fn	[2dd	8ccc]
.	.	8aa
.	.	8bb
.	.	8ddd
=99	=99	=99
2En	8dd]	[2gg
.	8cc	.
.	8dd-	.
.	8bn	.
[2E-	4.cc	8gg]
.	.	8ff#
.	.	[4gg
.	8b-	.
=100	=100	=100
4E-]	[2an	8gg]
.	.	8cc
4D	.	8ff
.	.	8een
4D-	8a]	[2ff
.	8g	.
4C	8a-	.
.	8f	.
=101	=101	=101
4BBn	[1g	8ff]
.	.	8dd
8AAn	.	8ee-
8GG	.	8ff
4C	.	8ee-
.	.	8dd
4F	.	8cc
.	.	8bn
=102	=102	=102
2E-	4g]	8cc
.	.	8bn
.	2ff#	8cc
.	.	8dd
2DT	.	8cc
.	.	8b-
.	[4gg	8an
.	.	8g
=103	=103	=103
4C#	8gg]	2.an
.	8een	.
8BBn	8ffn	.
8AAn	8gg	.
4D	8ff	.
.	8ee	.
4G	8dd	4bb-
.	8cc#	.
=104	=104	=104
4F#	8dd	4aan
.	8ccn	.
4Fn	8b-	2dd
.	8an	.
4En	8g	.
.	8b-	.
4E-	8a-	[4cc
.	8g	.
=105	=105	=105
[1D	4f#	8cc]
.	.	8an
.	4d	8b-
.	.	8g
.	4c#	8en
.	.	8b-
.	4cn	8an
.	.	8e-
=106	=106	=106
1D_	8Bn	4d
.	8An	.
.	8B-	4dd
.	8g	.
.	8A	4cc#
.	8g	.
.	8f#	4ccn
.	8A	.
=107	=107	=107
4D]	4.G	8bn
.	.	8an
4D	.	[4b-
.	8F#	.
4C#	4.G	8b-]
.	.	8a
4Cn	.	[4ee-
.	8f#	.
=108	=108	=108
8BBn	4.g	8ee-]
8AAn	.	8dd
8BB-	.	4gg
8G	8ee-	.
8AA	8dd	4r
8G	8cc#	.
8D	8r	8aan
8F#	8an	8ccn
=109	=109	=109
4GG	{8an	{8cc
.	8g}	8b-}
4B-	4r	4r
4En	8r	8r
.	8b-	8dd-
4G	8a-	8cc
.	8g	8b-
=110	=110	=110
4C	8r	8r
.	8d-	8b-
8D	8c	8a-
8En	8B-	8g
8F	8r	8r
8E-	8B-	8g
[4F	8A-	8f
.	8G	8en
=111	=111	=111
4F]	{8G	{8en
.	8A-}	8f}
4A-	8r	8r
.	8cc-	8ddn
4D	8r	8r
.	8cc-	8ff
4F	8r	8r
.	8cc-	8dd
=112	=112	=112
4BB-	8r	8r
.	8aa-	8cccn
8C	8gg	8bb-
8D	8ff	8aa-
8E-	8r	8r
8D	8ff	8aa-
[4E-	8ee-	8gg
.	8dd	8ff
=113	=113	=113
8E-]	{8dd	{8ff
8D	8ee-}	8gg}
8E-	4r	8r
8F	.	8cc
8E-	4r	{8cc
8D	.	8bn}
8C	8r	[4ff
8BBn	8a-	.
=114	=114	=114
8C	{8a-	4ff]
8BBn	8g}	.
8C	4r	8ee-
8D-	.	8a-
8C	4r	{8a-
8BB-	.	8g}
8AA-	8r	[4dd-
8GG	8b-	.
=115	=115	=115
4AA-	8b-	4dd-]
.	8e-	.
4C	4a-	8cc
.	.	8ee-
4E-	4r	8ddn
.	.	8dd-
4F	8r	8cc
.	8dn	8cc-
=116	=116	=116
4GG	{8d	{8cc-
.	8e-}	8b-}
4BB-	8r	4r
.	8b-	.
4D	8an	4r
.	8a-	.
4E-	8g	8r
.	8g-	8ee-
=117	=117	=117
4FF	{8g-	{8ee-
.	8f}	8dd}
4AA-	8r	8r
.	8c	8a-
4C	8Bn	8gn
.	8B-	8g-
4D	8An	8f
.	8A-	8f-
=118	=118	=118
4EE-	{8A-	{8f-
.	8G}	8e-}
4E-	4G	8r
.	.	8e-
4D	4A-	8f-
.	.	8fn
4D-	4B-	8g-
.	.	8gn
=119	=119	=119
4C	4E-	8a-
.	.	8g
4AA-	8r	8g-
.	8c	8f
4GG	8d-	[2b-
.	8dn	.
4GG-	8e-	.
.	8en	.
=120	=120	=120
4FF	8f	8b-]
.	8en	8gn
4F	8f	8a-
.	8A-	8f
4En	4B-	8g-
.	.	8gn
4E-	4c	8a-
.	.	8an
=121	=121	=121
4D	4F	8b-
.	.	8an
4BB-	8r	8a-
.	8d	8g
4AAn	8e-	[2cc
.	8en	.
4AA-	8f	.
.	8f#	.
=122	=122	=122
4GG	8g	8cc]
.	8f#	8an
4G	4g	4b-
4F#	4r	2r
4Fn	8r	.
.	8d	.
=123	=123	=123
4En	8c#	4r
.	8cn	.
2E-	8Bn	4g
.	8B-	.
.	8An	4f#
.	8B-	.
8D	8Bn	[4fn
8C	8c	.
=124	=124	=124
8BBn	4d	4f]
16AAn	.	.
16GG	.	.
8C	2c	8e-
8F	.	8d
4E-	.	12e-
.	.	12f
.	.	12g
4D	4Bn	12a-
.	.	12g
.	.	12f
=125	=125	=125
8C	4c	4e-
8D	.	.
8E-	8r	4cc
8C	[8a-	.
8D-	8a-]	4bn
8Dn	16g	.
.	16f	.
8E-	[4g	4b-
8En	.	.
=126	=126	=126
8F	8g]	4an
8C	16f	.
.	16e-	.
8F	8d	2a-
8E-	8c	.
8D	4Bn	.
8C	.	.
8D-	[4B-	8g
8BB-	.	8f
=127	=127	=127
[2C	4B-]	8en
.	.	16d
.	.	16c
.	8A-	8f
.	8G	8b-
12C]	4F	4a-
12BB-	.	.
12C	.	.
12D-	4En	4g
12C	.	.
12BB-	.	.
=128	=128	=128
4AA-	4F	12f
.	.	12g
.	.	12a-
4C	6r	12b-
.	.	12a-
.	12en	12g
[2FF	4f	12a-
.	.	12b-
.	.	12cc
.	6r	12dd-
.	.	12cc
.	12g	12b-
=129	=129	=129
8FF]	4a-	4cc
8GG	.	.
8AA-	8r	2ff
8BB-	8a-	.
8C	4g	.
8AA-	.	.
8BB-	4g-	[4ee-
8C	.	.
=130	=130	=130
4D-	4f	8ee-]
.	.	8dd-
4E-	2e-	8cc
.	.	8b-
8F	.	8a-
8E-	.	8cc-
4F	4dn	8b-
.	.	8a-
=131	=131	=131
8E-	4g	4b-
8FF	.	.
8GG-	8r	2ee-
8AA-	8g-	.
8BB-	4f	.
8GGn	.	.
8AA-	4f-	[4dd-
8BB-	.	.
=132	=132	=132
4C	4e-	8dd-]
.	.	8cc
4D-	2d-	8b-
.	.	8a-
8E-	.	8g-
8D-	.	8b--
4E-	4c	8a-
.	.	8g-
=133	=133	=133
8D-	4f	4a-
8EE-	.	.
8FF-	8r	2dd-
8GG-	8f-	.
8AA-	2e-	.
8FFn	.	.
8GGn	.	[4cc
8AAn	.	.
=134	=134	=134
8BB-	4dn	4cc]
8AA-	.	.
8GG-	4d-	2b-
8FF	.	.
8EEn	[2c	.
8GGn	.	.
8FF	.	8a-
8EE-	.	8g
=135	=135	=135
4DD-	8c]	2f
.	8c	.
4FF	8B-	.
.	8A-	.
4BB-	8G-	4r
.	8F	.
4D-	8En	[4b-
.	8F	.
=136	=136	=136
4GG	2En	8b-]
.	.	8a-
4.C	.	8g
.	.	8f
.	2r	8en
8BB-	.	8dd-
8AA-	.	8cc
8GG	.	8b-
=137	=137	=137
4FF	4r	8a-
.	.	8g
4AA-	[4f	8f
.	.	8g
4D-	8f]	[2a-
.	8en	.
4F	8e-	.
.	8dn	.
=138	=138	=138
4BB-	4d-	8a-]
.	.	8cc
4.E-	4g	8b-
.	.	8a-
.	4B-	8g
8D-	.	8ff
8C	4r	8ee-
8BB-	.	8dd-
=139	=139	=139
4AA-	4r	8cc
.	.	8b-
4C	8r	8a-
.	[8b-	8b-
4F	8b-]	[2cc
.	8a-	.
4A-	8g	.
.	8f#	.
=140	=140	=140
4Dn	8fn	4cc]
.	8a-	.
4.G	8g	4bn
.	8f	.
.	8e-	2r
8F	8d	.
8E-	8c	.
8D	8Bn	.
=141	=141	=141
8E-	8c	2cc
8C	8r	.
8BB-	4r	.
8AA-	.	.
8GG	8r	2ee-
8FF	8bn	.
8EE-	8cc	.
8DD	8dd	.
=142	=142	=142
8CC	4ee-	2gg
8C	.	.
8D	2cc	.
8E-	.	.
8F	.	2aa-
8G	.	.
8A-	[4ff	.
8F	.	.
=143	=143	=143
4G	8ff]	2bn
.	8dd	.
4GG	8ee-	.
.	8ff	.
8C	8ee-	4r
8D	8dd	.
[4E-	8cc	4gg
.	8b-	.
=144	=144	=144
4E-]	8an	2ff#
.	8cc	.
4AAn	8dd	.
.	8ee-	.
8BBn	8dd	2ffn
8C	8cc	.
[4D	8bn	.
.	8an	.
=145	=145	=145
4D]	8g	2een
.	8bn	.
4GG	8cc	.
.	8dd	.
8AAn	8cc	[2ee-
8BB-	8b-	.
[4C	8an	.
.	8g	.
=146	=146	=146
8C]	4f#	4ee-]
8AAn	.	.
8BB-	2g	4dd
8C	.	.
8BB-	.	4dd-
8AA-	.	.
8GG	[4a-	4cc
8FF#	.	.
=147	=147	=147
4GG	8a-]	4bn
.	8d	.
4r	8e-	8an
.	8fn	8g
4r	8e-	4cc
.	8d	.
4G	8c	4ff
.	8Bn	.
=148	=148	=148
4A-	8c	2ee-
.	8f	.
4F	8g	.
.	[8a-	.
[2B-	8a-]	4dd
.	8a-	.
.	8g	4dd-
.	8f	.
=149	=149	=149
4B-]	2en	8cc
.	.	8gg
4G	.	8aa-
.	.	8bb-
[2c	2e-	8aa-
.	.	8gg
.	.	8ff#
.	.	8gg
=150	=150	=150
4c]	8d	[2ff#
.	8cc	.
4An	8dd	.
.	8ee-	.
[2d	8dd	8ff#]
.	8cc	8ff#
.	8b-	8gg
.	8an	8aan
=151	=151	=151
2d]	8b-	8gg
.	8g	8ffn
.	8an	8ee-
.	8b-	8dd
[2c	8a-	8ee-
.	8g	8cc
.	8f#	8dd
.	8g	8ee-
=152	=152	=152
8c]	4f#	[2dd
8An	.	.
8B-	8g	.
8c	8an	.
8B-	4d	8dd]
8A	.	8cc
8G	4r	8b-
8F#	.	8an
=153	=153	=153
8G	2g	8b-
8F#	.	8dd
8G	.	4gg
8An	.	.
8G	2b-	8dd
8Fn	.	8gg
8E-	.	[4bb-
8D	.	.
=154	=154	=154
4e-	2cc	8bb-]
.	.	8gg
4C	.	8aan
.	.	[8bb-
[2cc	2ee-	8bb-]
.	.	16aa
.	.	16gg
.	.	16ff#
.	.	16gg
.	.	8aa
=155	=155	=155
8cc]	2f#	4dd
8An	.	.
8b-	.	4ddd
8cc	.	.
8b-	4r	8gg
8a	.	8aan
8g	4dd	[4bb-
8fn	.	.
=156	=156	=156
8en	2cc#	4bb-]
8g	.	.
8an	.	4een
8b-	.	.
8a	2ccn	8ff#
8g	.	8gg
8f#	.	[4aan
8e	.	.
=157	=157	=157
8d	2bn	4aa]
8f#	.	.
8g	.	4dd
8an	.	.
8g	[2b-	8een
8fn	.	8ffn
8en	.	[4gg
8d	.	.
=158	=158	=158
4c#	4b-]	8gg]
.	.	8een
4r	4an	8ff
.	.	8gg
4r	4a-	8ff
.	.	8een
4b-	4g	8dd
.	.	8cc#
=159	=159	=159
8cn	4f#	[1dd
8An	.	.
8B-	8en	.
8c	8d	.
8B-	4g	.
8A	.	.
8G	4cc	.
8F#	.	.
=160	=160	=160
8G	2b-	4dd]
8Fn	.	.
8E-	.	2gg
8D	.	.
8C	2an	.
8BB-	.	.
8C	.	4ff#
8D	.	.
=161	=161	=161
8GG	4g	4gg
8G	.	.
8F#	4r	4ddd
8G	.	.
8B-	4r	4gg
8d	.	.
8G	4dd-	4bb-
8B-	.	.
=162	=162	=162
2c	4g	8een
.	.	8ff
.	4b-	8gg
.	.	8ee
4r	8en	4cc
.	8f	.
4c	8g	[4bb-
.	8e	.
=163	=163	=163
4A-	4c	4bb-]
4c	8d	8aa-
.	8en	8gg
4F	[2f	8aa-
.	.	8gg
8G	.	8ff
8A-	.	8ee-
=164	=164	=164
2B-	4f]	8dd
.	.	8ee-
.	4a-	8ff
.	.	8gg
4r	8d	8aa-
.	8e-	8gg
4B-	8f	[4aa-
.	8d	.
=165	=165	=165
4G	4B-	4aa-]
4B-	8c	8gg
.	8d	8ff
4E-	[2e-	8gg
.	.	8ff
8F	.	8ee-
8G	.	8dd
=166	=166	=166
2A-	4e-]	4cc
.	8d	8dd
.	8c	8ee-
4r	8d	[2ff
.	8c	.
4D	8Bn	.
.	8An	.
=167	=167	=167
4E-	4G	4ff]
4G	8An	8ee-
.	8Bn	8dd
4C	[2c	8ee-
.	.	8dd
8D	.	8cc
8En	.	8b-
=168	=168	=168
8F	4c]	4an
8E-	.	.
8D	4Bn	4a-
8F	.	.
8E-	4c	4g
8D	.	.
8C	4d	[4f
8BBn	.	.
=169	=169	=169
2C	4G	2f_
.	8An	.
.	8Bn	.
2E-	8c	4.f]
.	8B	.
.	[4c	.
.	.	8e-
=170	=170	=170
2G	8c]	4d
.	8Bn	.
.	8An	2g
.	8B	.
2A-	8c	.
.	8e-	.
.	8d	4f#
.	8c	.
=171	=171	=171
2BBn	4d	8g
.	.	8dd
.	4G	8ee-
.	.	8ffn
4r	8c	8ee-
.	8d	8dd
4G	[4e-	8cc
.	.	8b-
=172	=172	=172
2F#	4e-]	8an
.	.	8cc
.	4An	8dd
.	.	8ee-
2Fn	8Bn	8dd
.	8c	8cc
.	[4d	8bn
.	.	8an
=173	=173	=173
2En	4d]	8g
.	.	8bn
.	4G	8cc
.	.	8dd
[2E-	8An	8cc
.	8B-	8b-
.	[4c	8an
.	.	8g
=174	=174	=174
4E-]	8c]	2f#
.	8An	.
4D	8B-	.
.	8c	.
4D-	8B-	4r
.	8An	.
4C	8G	4ee-
.	8F#	.
=175	=175	=175
4BBn	[1G	8fn
.	.	8d
8AAn	.	8e-
8GG	.	8f
4C	.	8e-
.	.	8d
4F	.	8c
.	.	8Bn
=176	=176	=176
2E-	4G]	8c
.	.	8f
.	2c	8g
.	.	8a-
2D	.	8g
.	.	8f
.	4Bn	8e-
.	.	8d
=177	=177	=177
[1C	8c	[2e-
.	8G	.
.	8A-	.
.	8B-	.
.	8A-	8e-]
.	8G	8b-
.	8F	8a-
.	8E-	8g
=178	=178	=178
2C]	8D	8f#
.	8F#	8ee-
.	8G	[4dd
.	8An	.
[2BB-	8G	8dd]
.	8Fn	8aa-
.	8En	8gg
.	8D	8ffn
=179	=179	=179
2BB-]	8C	8een
.	8En	8ddd-
.	8F	2ccc
.	8G	.
2AA-	8F	.
.	8E-	.
.	8D	[4ff
.	8C	.
=180	=180	=180
[1GG	4BBn	8ff]
.	.	8dd
.	4G	8ee-
.	.	8cc
.	4F#	8an
.	.	8ee-
.	4Fn	8dd
.	.	8a-
=181	=181	=181
1GG_	8En	8g
.	8D	8f#
.	8E-	4g
.	8c	.
.	8D	4f#
.	8c	.
.	8Bn	4fn
.	8D	.
=182	=182	=182
4GG]	4.C	8en
.	.	8d
4GG	.	[4e-
.	8BBn	.
4FF#	4.C	8e-]
.	.	8d
4FFn	.	[4a-
.	8Bn	.
=183	=183	=183
8EEn	4.c	8a-]
8DD	.	8g
8EE-	.	4cc
8C	8a-	.
8DD	{8g	4r
8C	8f#}	.
8GG	8r	8dd
8BBn	8d	8fn
=184	=184	=184
4C	{8d	{8f
.	8c}	8e-}
4AA-	8r	8r
.	8e-	8cc
4FF	8r	8r
.	8d	8cc
4GG	8r	8r
.	8f	8bn
=185	=185	=185
2CC	{4f	{4bn
.	4en}	4cc}
2r	2r	2r
==	==	==
*-	*-	*-
